brandFactory_export/2.Regular/Configurar celular_2Regular.svg

<?xml version="1.0" encoding="UTF-8"?>
<svg width="24px" height="24px" viewBox="0 0 24 24" version="1.1" xmlns="http://www.w3.org/2000/svg" xmlns:xlink="http://www.w3.org/1999/xlink">
    <title>2.Regular/Configurar celular_2Regular</title>
    <g id="Symbols" stroke="none" stroke-width="1" fill="none" fill-rule="evenodd">
        <g id="2.Regular/Configurar-celular_2Regular" fill="#5CB615" fill-rule="nonzero">
            <path d="M18.8016807,1.49213975e-13 C21.389916,1.49213975e-13 22.7008403,1.32773109 22.7008403,3.94957983 L22.7008403,19.6806723 C22.7008403,22.3394958 21.4268908,23.6302521 18.8016807,23.6302521 L10.1798319,23.6302521 C7.55462185,23.6302521 6.28067227,22.3394958 6.28067227,19.6806723 L6.27996706,15.7637515 C5.74268444,15.740607 5.31596639,15.2994062 5.31596639,14.7563025 L5.31596639,14.7563025 L5.31596639,14.1277311 C5.22521008,14.1042017 5.13781513,14.0739496 5.05042017,14.0436975 L5.05042017,14.0436975 L4.62352941,14.4705882 C4.2302521,14.8638655 3.59159664,14.8638655 3.19831933,14.4705882 L3.19831933,14.4705882 L2.31764706,13.5932773 C1.92436975,13.2 1.92436975,12.5613445 2.31764706,12.1680672 L2.31764706,12.1680672 L2.74117647,11.7378151 C2.71092437,11.6504202 2.68403361,11.5630252 2.65714286,11.4722689 L2.65714286,11.4722689 L2.02857143,11.4722689 C1.47058824,11.4722689 1.02016807,11.0218487 1.02016807,10.4638655 L1.02016807,10.4638655 L1.02016807,9.22016807 C1.02016807,8.66218487 1.47058824,8.21176471 2.02857143,8.21176471 L2.02857143,8.21176471 L2.66386555,8.21176471 C2.68739496,8.1210084 2.71764706,8.03361345 2.74789916,7.94621849 L2.74789916,7.94621849 L2.3210084,7.51932773 C1.92773109,7.12605042 1.92773109,6.48739496 2.3210084,6.09411765 L2.3210084,6.09411765 L3.19831933,5.21344538 C3.59159664,4.82016807 4.2302521,4.82016807 4.62352941,5.21344538 L4.62352941,5.21344538 L5.05042017,5.64033613 C5.13781513,5.61008403 5.22521008,5.58319328 5.31596639,5.55630252 L5.31596639,5.55630252 L5.31596639,4.92773109 C5.31596639,4.3697479 5.76638655,3.91932773 6.32436975,3.91932773 L6.28016807,3.921 L6.28546316,3.67060171 C6.3270108,2.48559424 6.63913565,1.61008403 7.23529412,0.998319328 C7.88739496,0.32605042 8.85210084,1.49213975e-13 10.1798319,1.49213975e-13 L18.8016807,1.49213975e-13 Z M18.8016807,1.34453782 L10.1798319,1.34453782 C9.23193277,1.34453782 8.58319328,1.5394958 8.19663866,1.93613445 C7.81381686,2.32894291 7.62879942,2.97889703 7.62526182,3.92191076 C8.15403059,3.95113485 8.57647059,4.38959817 8.57647059,4.93445378 L8.57647059,4.93445378 L8.57647059,5.56302521 C8.66722689,5.58655462 8.75462185,5.61680672 8.84201681,5.64705882 L8.84201681,5.64705882 L9.26890756,5.22016807 C9.66218487,4.82689076 10.3008403,4.82689076 10.6941176,5.22016807 L10.6941176,5.22016807 L11.5714286,6.09747899 C11.9647059,6.4907563 11.9647059,7.12941176 11.5714286,7.52268908 L11.5714286,7.52268908 L11.1445378,7.94957983 C11.1747899,8.03697479 11.2016807,8.12436975 11.2285714,8.21512605 L11.2285714,8.21512605 L11.8571429,8.21512605 C12.4151261,8.21512605 12.8655462,8.66554622 12.8655462,9.22352941 L12.8655462,9.22352941 L12.8655462,10.4672269 C12.8655462,11.0252101 12.4151261,11.4756303 11.8571429,11.4756303 L11.8571429,11.4756303 L11.2285714,11.4756303 C11.205042,11.5663866 11.1747899,11.6537815 11.1445378,11.7411765 L11.1445378,11.7411765 L11.5714286,12.1680672 C11.9647059,12.5613445 11.9647059,13.2 11.5714286,13.5932773 L11.5714286,13.5932773 L10.6941176,14.4705882 C10.3008403,14.8638655 9.66218487,14.8638655 9.26890756,14.4705882 L9.26890756,14.4705882 L8.84201681,14.0436975 C8.75462185,14.0739496 8.66722689,14.1008403 8.57647059,14.1277311 L8.57647059,14.1277311 L8.57647059,14.7563025 C8.57647059,15.3142857 8.12605042,15.7647059 7.56806723,15.7647059 L7.62516807,15.761 L7.62521008,19.6806723 C7.62521008,20.6487395 7.81344538,21.3109244 8.2,21.7042017 C8.58655462,22.097479 9.23529412,22.2857143 10.1798319,22.2857143 L18.8016807,22.2857143 C19.7495798,22.2857143 20.394958,22.0941176 20.7815126,21.7042017 C21.1680672,21.3142857 21.3563025,20.6487395 21.3563025,19.6806723 L21.3563025,3.94957983 C21.3563025,2.07394958 20.6403361,1.34453782 18.8016807,1.34453782 Z M14.5058824,18.3697479 C15.1983193,18.3697479 15.6521008,18.7361345 15.6521008,19.5193277 C15.6521008,19.8957983 15.5478992,20.1747899 15.3630252,20.3663866 C15.1613445,20.5714286 14.8689076,20.6689076 14.5058824,20.6689076 C14.1428571,20.6689076 13.8504202,20.5714286 13.6487395,20.3663866 C13.4638655,20.1781513 13.3596639,19.8957983 13.3596639,19.5193277 C13.3596639,18.7327731 13.810084,18.3697479 14.5058824,18.3697479 Z M7.56806723,4.92773109 L6.32773109,4.93109244 L6.32773109,6.38991597 C5.74621849,6.45042017 5.2487395,6.60504202 4.83529412,6.85378151 L4.83529412,6.85378151 L3.91092437,5.92941176 L3.0302521,6.80672269 L3.9512605,7.73109244 C3.7092437,8.13445378 3.5512605,8.63193277 3.48739496,9.22352941 L3.48739496,9.22352941 L2.02857143,9.22352941 L2.02857143,10.4672269 L3.48739496,10.4672269 C3.5512605,11.0588235 3.70588235,11.5563025 3.9512605,11.9596639 L3.9512605,11.9596639 L3.02689076,12.8840336 L3.90756303,13.7613445 L4.83193277,12.8369748 C5.24537815,13.0857143 5.74621849,13.2369748 6.32436975,13.3008403 L6.32436975,13.3008403 L6.32436975,14.7596639 L7.56806723,14.7596639 L7.56806723,13.3008403 C8.14957983,13.2403361 8.64705882,13.0857143 9.0605042,12.8369748 L9.0605042,12.8369748 L9.98487395,13.7613445 L10.8621849,12.8840336 L9.93781513,11.9596639 C10.1798319,11.5563025 10.3378151,11.0588235 10.4016807,10.4672269 L10.4016807,10.4672269 L11.8605042,10.4672269 L11.8605042,9.22352941 L10.4016807,9.22352941 C10.3411765,8.63193277 10.1831933,8.13445378 9.93781513,7.73109244 L9.93781513,7.73109244 L10.8621849,6.80336134 L9.98487395,5.92605042 L9.0605042,6.85042017 C8.64705882,6.60168067 8.14621849,6.45042017 7.56806723,6.38655462 L7.56806723,6.38655462 L7.56806723,4.92773109 Z M6.94621849,7.09243697 C7.77647059,7.09243697 8.44537815,7.32773109 8.93277311,7.79831933 C9.44033613,8.28907563 9.69915966,8.97478992 9.69915966,9.84537815 C9.69915966,10.7159664 9.44033613,11.4016807 8.93277311,11.892437 C8.44537815,12.3596639 7.77647059,12.5983193 6.94621849,12.5983193 C6.11596639,12.5983193 5.44705882,12.3630252 4.95966387,11.892437 C4.45210084,11.4016807 4.19327731,10.7159664 4.19327731,9.84537815 C4.19327731,8.97478992 4.45210084,8.28907563 4.95966387,7.79831933 C5.44705882,7.33109244 6.11596639,7.09243697 6.94621849,7.09243697 Z M6.94621849,8.10084034 C5.84033613,8.10084034 5.20168067,8.65210084 5.20168067,9.84537815 C5.20168067,11.0386555 5.84033613,11.589916 6.94621849,11.589916 C8.05210084,11.589916 8.6907563,11.0386555 8.6907563,9.84537815 C8.6907563,8.65210084 8.05210084,8.10084034 6.94621849,8.10084034 Z" id="Configurar-celular_2Regular"></path>
        </g>
    </g>
</svg>

<svg width="24" height="24" viewBox="0 0 24 24" xmlns="http://www.w3.org/2000/svg"><path d="M18.802 0C21.39 0 22.7 1.328 22.7 3.95v15.73c0 2.66-1.274 3.95-3.9 3.95H10.18c-2.625 0-3.9-1.29-3.9-3.95v-3.916a1.007 1.007 0 01-.964-1.008v-.628c-.09-.024-.178-.054-.266-.084l-.426.427a1.008 1.008 0 01-1.426 0l-.88-.878a1.008 1.008 0 010-1.425l.423-.43a6.13 6.13 0 01-.084-.266H2.03c-.558 0-1.009-.45-1.009-1.008V9.22c0-.558.45-1.008 1.009-1.008h.635c.023-.091.054-.178.084-.266L2.32 7.52a1.008 1.008 0 010-1.425l.877-.88a1.008 1.008 0 011.426 0l.426.426a6.13 6.13 0 01.266-.084v-.628c0-.558.45-1.009 1.008-1.009l-.044.002.005-.25c.042-1.185.354-2.06.95-2.673C7.887.326 8.852 0 10.18 0h8.622zm0 1.345H10.18c-.948 0-1.597.194-1.983.591-.383.393-.568 1.043-.572 1.986.529.03.951.468.951 1.012v.629c.091.024.179.054.266.084l.427-.427a1.008 1.008 0 011.425 0l.877.877a1.008 1.008 0 010 1.426l-.426.427c.03.087.057.174.084.265h.628c.558 0 1.009.45 1.009 1.009v1.243c0 .558-.45 1.009-1.009 1.009h-.628c-.024.09-.054.178-.084.265l.426.427a1.008 1.008 0 010 1.425l-.877.878a1.008 1.008 0 01-1.425 0l-.427-.427a6.13 6.13 0 01-.266.084v.628c0 .558-.45 1.009-1.008 1.009l.057-.004v3.92c0 .968.188 1.63.575 2.023.387.393 1.035.582 1.98.582h8.622c.948 0 1.593-.192 1.98-.582.386-.39.574-1.055.574-2.023V3.95c0-1.876-.716-2.605-2.554-2.605zM14.506 18.37c.692 0 1.146.366 1.146 1.15 0 .376-.104.655-.289.846-.202.205-.494.303-.857.303s-.656-.098-.857-.303c-.185-.188-.29-.47-.29-.847 0-.786.451-1.15 1.147-1.15zM7.568 4.928l-1.24.003V6.39c-.582.06-1.08.215-1.493.464l-.924-.925-.88.878.92.924c-.242.403-.4.9-.464 1.493H2.03v1.243h1.458c.064.592.219 1.09.464 1.493l-.924.924.88.877.925-.924c.413.249.914.4 1.492.464v1.459h1.244V13.3c.582-.06 1.08-.214 1.493-.463l.924.924.877-.877-.924-.924c.242-.404.4-.901.464-1.493h1.459V9.224H10.4c-.06-.592-.218-1.09-.463-1.493l.924-.928-.877-.877-.924.924c-.414-.248-.915-.4-1.493-.463v-1.46zm-.622 2.164c.83 0 1.5.236 1.987.706.507.491.766 1.177.766 2.047 0 .871-.259 1.557-.766 2.047-.488.468-1.157.706-1.987.706-.83 0-1.499-.235-1.986-.706-.508-.49-.767-1.176-.767-2.047 0-.87.26-1.556.767-2.047.487-.467 1.156-.706 1.986-.706zm0 1.009c-1.106 0-1.744.551-1.744 1.744 0 1.194.638 1.745 1.744 1.745 1.106 0 1.745-.551 1.745-1.745 0-1.193-.639-1.744-1.745-1.744z" fill="#5CB615" fill-rule="nonzero"/></svg>
